assets/images/ĐU.svg

<svg fill="none" height="73" viewBox="0 0 73 73" width="73" xmlns="http://www.w3.org/2000/svg"><g fill="#ff5107"><path d="m45.5449 20.1694h-4.283v4.283h4.283z"/><path d="m31.3724 20.1694h-4.283v4.283h4.283z"/><path d="m39.7004 22.7719h-6.7665v4.1641h6.7665z"/><path clip-rule="evenodd" d="m57.5539 4.03389h-8.328v-4.03389h-25.579v4.03389h-8.328v8.32801h-4.2807l-.0003 54.0086h46.5157l.0003-8.3346h4.2566v-37.4761-8.1979h-4.2566zm-8.3767 12.61101v-4.3007l4.2941.0065v-4.29411h-4.2941v4.28761l-10.6591.0131v4.2941h-4.2941v-4.3007l-10.5771.0112v-4.29412h-4.2941v4.29412h4.2941v4.2942l-4.2852-.0112v15.8976h4.2852v4.2942l25.579-.0112v-4.283h4.2829v-15.8976z" fill-rule="evenodd"/><path d="m8.97852 42.161v4.2853h-8.97865924l-.00000005-4.2853z"/><path d="m4.55458 66.3638h4.28526v-8.9787h-4.28526z"/><path d="m49.0566 68.5761v4.2852h-8.9786v-4.2852z"/><path d="m73 42.161v4.2853h-8.9787v-4.2853z"/></g></svg>

<svg width="73" height="73" viewBox="0 0 73 73" fill="none" xmlns="http://www.w3.org/2000/svg">
<path d="M45.5449 20.1694H41.2619V24.4524H45.5449V20.1694Z" fill="#FF5107"/>
<path d="M31.3724 20.1694H27.0894V24.4524H31.3724V20.1694Z" fill="#FF5107"/>
<path d="M39.7004 22.7719H32.9339V26.936H39.7004V22.7719Z" fill="#FF5107"/>
<path fill-rule="evenodd" clip-rule="evenodd" d="M57.5539 4.03389H49.2259V0H23.6469V4.03389H15.3189V12.3619H11.0382L11.0379 66.3705H57.5536L57.5539 58.0359H61.8105V20.5598V12.3619H57.5539V4.03389ZM49.1772 16.6449V12.3442L53.4713 12.3507V8.05659H49.1772V12.3442L38.5181 12.3573V16.6514H34.224V12.3507L23.6469 12.3619V8.06778H19.3528V12.3619H23.6469V16.6561L19.3617 16.6449V32.5425H23.6469V36.8367L49.2259 36.8255V32.5425H53.5088V16.6449H49.1772Z" fill="#FF5107"/>
<path d="M8.97852 42.161L8.97852 46.4463L-0.000139236 46.4463L-0.000139288 42.161L8.97852 42.161Z" fill="#FF5107"/>
<path d="M4.55458 66.3638H8.83984V57.3851H4.55458L4.55458 66.3638Z" fill="#FF5107"/>
<path d="M49.0566 68.5761L49.0566 72.8613L40.078 72.8613L40.078 68.5761L49.0566 68.5761Z" fill="#FF5107"/>
<path d="M73 42.161L73 46.4463L64.0213 46.4463L64.0213 42.161L73 42.161Z" fill="#FF5107"/>
</svg>
